X:1
T:Title
%%score { 1 | 2 }
L:1/8
Q:1/4=100
M:6/8
K:Ab
V:1 treble nm="Grand Piano"
V:2 bass 
V:1
 c>cc c>BA | [FB]>[FA]F F E2 | G>GG E>GB | [CA]6 | c>cc c>BA | [FB]>[FA]F F E2 | G>GG E>GB | %7
w: L.~L.~Picket * * * * *|||||||
 [CA]6 | B>BB B>AB | c>cc c c2 | F>[EG][EA] [FB]>[FA][DF] | [CE]6 | c>cc c>BA | %13
w: ||||||
 [FB]>[FA][DF] [DF] [CE]2 | G>GG G>FG | [CA]6 | [Ec]>[Ec][Ec] [Ec]>[EB][Ec] | e>ee e e2 | %18
w: |||||
 [Ec]>[Ec][Ec] [Ec]>[=DB][DA] | B6 | c>cc c>BA | [FB]>[FA][DF] [DF] [CE]2 | G>GG G>FG | %23
w: |||||
[M:7/4] [CA]6 z2 z2 z4 |] %24
w: |
V:2
 [A,CE]>[A,CE][A,CE] [A,CE]>[A,DE][A,CE] | [D,D]>[D,D][D,A,D] [D,A,D] [A,,A,]2 | %2
 [E,B,D]>[E,B,D][E,B,D] [E,G,D]>[E,G,D][E,G,D] | [A,,A,]6 | %4
 [A,CE]>[A,CE][A,CE] [A,CE]>[A,DE][A,CE] | [D,D]>[D,D][D,A,D] [D,A,D] [A,,A,]2 | %6
 [E,B,D]>[E,B,D][E,B,D] [E,G,D]>[E,G,D][E,G,D] | [A,,A,]6 | %8
 [E,G,D]>[E,G,D][E,G,D] [E,G,D]>[E,A,C][E,G,E] | [A,CE]>[A,CE][A,CE] [A,CE] [A,CE]2 | %10
 [D,A,D]>[D,A,][C,A,] [D,A,]>[D,A,][D,A,] | [A,,A,]6 | [A,CE]>[A,CE][A,CE] [A,CE]>[A,DE][A,CE] | %13
 [D,A,]>[D,A,][D,A,] [D,A,] [A,,A,]2 | [E,B,D]>[E,B,D][E,B,D] [E,B,D]>[E,A,D][E,B,D] | [A,,A,]6 | %16
 [A,,A,]>[A,,A,][A,,A,] [A,,A,]>[A,,A,][A,,A,] | [A,CA]>[A,CA][A,CA] [A,CA] [A,CA]2 | %18
 [A,,A,]>[A,,A,][A,,A,] [A,,A,]>[B,,F,][B,,F,] | [E,G,E]6 | %20
 [A,CE]>[A,CE][A,CE] [A,CE]>[A,DE][A,CE] | [D,A,]>[D,A,][D,A,] [D,A,] [A,,A,]2 | %22
 [E,B,D]>[E,B,D][E,B,D] [E,B,D]>[E,A,D][E,B,D] |[M:7/4] [A,,A,]6 z2 z2 z4 |] %24

